public/svgs/landing/instaLamp.svg

<svg width="96" height="120" viewBox="0 0 96 120" fill="none" xmlns="http://www.w3.org/2000/svg">
<g filter="url(#filter0_d_8_3)">
<path d="M16.8755 17.8108C11.8693 20.2313 9.45045 26.3511 11.2325 32.1465L33.087 99.6633L59.3392 93.7654L85.5913 87.8675L75.8675 17.6186C74.9447 11.6402 70.0931 7.13845 64.5187 7.0869C47.964 6.95039 31.7266 10.5942 16.8751 17.7898L16.8755 17.8108Z" fill="white"/>
</g>
<path d="M50.5723 7.93493L29.8301 12.5815L28.7394 7.84698C28.3759 6.2758 29.2529 4.68333 30.7998 4.13098C35.7128 2.40614 40.8247 1.24576 46.0316 0.714712C47.6481 0.539742 49.1386 1.60783 49.5021 3.179L50.5929 7.91355L50.5723 7.93493Z" fill="#FF9F05"/>
<path d="M61.8588 16.1123L23.2032 24.7891L21.1804 15.9903C20.4991 13.0574 22.1516 10.0846 24.9949 9.08931C34.1517 5.86144 43.6846 3.72079 53.3631 2.71338C56.3866 2.4091 59.1546 4.3807 59.8149 7.31387L61.8377 16.1127L61.8588 16.1123Z" fill="url(#paint0_linear_8_3)"/>
<path d="M15.8764 16.752C10.7241 19.2381 8.22476 25.5697 10.0517 31.5325L32.5728 101.12L59.642 95.0399L86.7113 88.9597L76.6984 16.5704C75.7302 10.4035 70.7503 5.77781 65.0077 5.72915C47.948 5.58028 31.2078 9.33791 15.8974 16.7516L15.8764 16.752Z" fill="url(#paint1_linear_8_3)"/>
<path opacity="0.3" d="M62.5855 87.2522C61.5467 85.5454 60.175 84.0546 58.8454 82.5631C58.0088 81.61 57.1718 80.6358 56.4599 79.5964C56.1366 79.1393 55.3195 79.3215 55.2662 79.8903C55.1363 80.9021 54.901 81.8947 54.6442 82.8665C54.1681 84.5363 53.5865 86.1868 53.1948 87.8761C52.8423 89.3964 52.6802 90.9766 52.8958 92.5083L63.8324 90.0491C63.5421 89.0656 63.1053 88.1266 62.5645 87.2525L62.5855 87.2522Z" fill="white"/>
<path d="M86.6841 88.9837C87.4343 92.2518 75.9163 97.6024 60.9778 100.951C46.0393 104.299 33.2954 104.391 32.5663 101.123C31.8161 97.8546 43.334 92.504 58.2725 89.1558C73.232 85.8074 85.955 85.7152 86.6841 88.9837Z" fill="url(#paint2_linear_8_3)"/>
<path d="M86.6841 88.9837C87.4343 92.2518 75.9163 97.6024 60.9778 100.951C46.0393 104.299 33.2954 104.391 32.5663 101.123C31.8161 97.8546 43.334 92.504 58.2725 89.1558C73.232 85.8074 85.955 85.7152 86.6841 88.9837Z" stroke="#FF9F05" stroke-width="1.27" stroke-miterlimit="10"/>
<path d="M86.1796 91.7048C86.9062 94.8262 75.8476 99.9796 61.475 103.213C47.1024 106.446 34.9048 106.508 34.1782 103.387C33.4516 100.266 44.5102 95.1121 58.8828 91.8789C73.2347 88.667 85.453 88.5835 86.1796 91.7048Z" stroke="#FF9F05" stroke-width="1.27" stroke-miterlimit="10"/>
<path d="M86.2616 90.6934C86.1547 90.59 86.0061 90.5084 85.8589 90.5109C85.7117 90.5135 85.5656 90.5791 85.4623 90.686C82.5507 93.8277 72.4608 97.8288 60.8956 100.425C49.3304 103.021 38.4686 103.712 34.4872 102.119C34.3389 102.059 34.1707 102.061 34.0456 102.127C33.8995 102.192 33.7965 102.32 33.757 102.468C33.6577 102.806 33.6424 103.143 33.7109 103.457C34.6423 107.48 48.8026 106.585 61.6671 103.714C74.5313 100.822 87.7128 95.59 86.7814 91.5678C86.7129 91.2535 86.5393 90.941 86.3033 90.6716L86.2616 90.6934Z" fill="url(#paint3_radial_8_3)"/>
<path d="M52.9054 92.5067C52.9293 92.6745 52.9536 92.8634 52.9985 93.0309C53.3642 94.7282 54.3178 96.3734 55.828 97.357C56.5726 97.849 57.4817 98.1278 58.3659 98.1757C61.5658 98.3522 63.9832 95.8289 64.1847 92.8599C64.2525 91.9123 64.1102 90.9683 63.842 90.0475L52.9054 92.5067Z" fill="white"/>
<path d="M58.1507 88.6314C44.7627 91.6374 31.0591 97.0886 32.014 101.258C32.0151 101.321 32.0586 101.404 32.1017 101.466L33.7383 103.689C33.8677 103.876 34.1005 103.956 34.31 103.91C34.3521 103.91 34.3731 103.909 34.4144 103.867C34.6439 103.757 34.7867 103.503 34.7193 103.251C34.6958 103.104 34.7143 102.957 34.7535 102.788C35.5081 100.188 44.7675 95.5914 59.0146 92.4024C73.2408 89.2137 83.6127 89.3932 85.4353 91.4231C85.5426 91.5474 85.6288 91.6722 85.6524 91.819C85.7198 92.0702 85.9333 92.2558 86.2067 92.2511C86.459 92.2468 86.687 92.0536 86.7458 91.8002L87.2459 89.0785C87.2459 89.0785 87.2433 88.9313 87.2419 88.8472C86.287 84.6781 71.5383 85.6043 58.1713 88.61L58.1507 88.6314Z" fill="url(#paint4_radial_8_3)"/>
<g opacity="0.1">
<path d="M22.8433 13.7536C19.0552 16.069 15.6298 19.9136 15.5831 24.5415C15.6296 27.2539 16.6003 29.8873 17.2551 32.5051C22.2446 49.9393 28.0572 67.5486 33.4657 84.8915L36.7163 95.3728C34.575 89.4785 31.6056 80.6749 29.5665 74.6106C26.1068 64.1959 22.7304 53.7377 19.6262 43.2118C18.0845 37.9382 16.5007 32.6652 15.3987 27.2789C13.9556 21.6249 18.0068 16.2553 22.8216 13.7119L22.8433 13.7536Z" fill="#F4F4F4"/>
</g>
<g opacity="0.1">
<path d="M57.7991 5.92041C62.3048 6.20062 67.2175 8.13539 69.4347 12.3248C70.6555 14.8277 70.9978 17.6191 71.6327 20.3004C74.4034 34.6809 76.3563 49.2017 78.2877 63.7018C79.0906 70.0397 80.2365 79.2111 80.8911 85.4885L79.2747 74.6426C76.5895 56.6641 74.1712 38.3024 71.0669 20.4152C70.5168 17.7746 70.2164 14.9825 69.0805 12.5202C66.9906 8.39167 62.266 6.39058 57.8412 5.91969L57.7991 5.92041Z" fill="#F4F4F4"/>
</g>
<g opacity="0.1">
<path d="M53.9068 71.6898C49.04 52.8233 44.6301 33.6124 40.8106 14.4966C45.6774 33.3631 50.0877 52.595 53.9068 71.6898Z" fill="#F4F4F4"/>
</g>
<g opacity="0.1">
<path d="M32.0847 11.3049C27.4327 17.2106 30.8477 25.018 32.3259 31.4916C36.4241 47.2375 41.7429 66.7062 45.8631 82.5148L48.4785 92.7547C47.4532 89.3861 46.4907 85.9953 45.4864 82.6264C40.6546 65.7994 35.9008 48.6136 31.6767 31.65C30.3025 25.1115 27.0303 17.0493 32.0636 11.3052L32.0847 11.3049Z" fill="#F4F4F4"/>
</g>
<g opacity="0.1">
<path d="M48.4034 7.63623C55.4165 10.6286 56.0071 19.3048 57.6118 25.7972C61.2074 42.8978 64.411 60.4468 67.3783 77.7054C67.9429 81.187 68.5491 84.6469 69.0926 88.129L67.001 77.7749C63.8229 61.7188 60.1177 41.9069 56.9622 25.9346C55.484 19.461 55.1279 10.9701 48.4038 7.65724L48.4034 7.63623Z" fill="#F4F4F4"/>
</g>
<path style="mix-blend-mode:color-dodge" d="M61.0424 100.693C76.186 97.0393 83.5867 73.8681 77.5725 48.9383C71.5582 24.0085 54.4064 6.76048 39.2628 10.4138C24.1192 14.0672 16.7185 37.2384 22.7327 62.1682C28.747 87.098 45.8988 104.346 61.0424 100.693Z" fill="url(#paint5_radial_8_3)"/>
<defs>
<filter id="filter0_d_8_3" x="0.649109" y="7.08301" width="94.9422" height="112.58" filterUnits="userSpaceOnUse" color-interpolation-filters="sRGB">
<feFlood flood-opacity="0" result="BackgroundImageFix"/>
<feColorMatrix in="SourceAlpha" type="matrix" values="0 0 0 0 0 0 0 0 0 0 0 0 0 0 0 0 0 0 127 0" result="hardAlpha"/>
<feOffset dy="10"/>
<feGaussianBlur stdDeviation="5"/>
<feColorMatrix type="matrix" values="0 0 0 0 0 0 0 0 0 0 0 0 0 0 0 0 0 0 0.65 0"/>
<feBlend mode="normal" in2="BackgroundImageFix" result="effect1_dropShadow_8_3"/>
<feBlend mode="normal" in="SourceGraphic" in2="effect1_dropShadow_8_3" result="shape"/>
</filter>
<linearGradient id="paint0_linear_8_3" x1="41.2284" y1="2.90039" x2="41.5986" y2="24.4733" gradientUnits="userSpaceOnUse">
<stop stop-color="#FF9F05"/>
<stop offset="1" stop-color="#FECB30" stop-opacity="0.8"/>
</linearGradient>
<linearGradient id="paint1_linear_8_3" x1="47.1857" y1="5.9976" x2="48.8135" y2="100.841" gradientUnits="userSpaceOnUse">
<stop stop-color="#FF8A00"/>
<stop offset="1" stop-color="#FF9F05" stop-opacity="0.82"/>
</linearGradient>
<linearGradient id="paint2_linear_8_3" x1="57.0037" y1="76.5015" x2="60.0037" y2="109.001" gradientUnits="userSpaceOnUse">
<stop stop-color="#FF8A00"/>
<stop offset="1" stop-color="#FF9F05" stop-opacity="0.82"/>
</linearGradient>
<radialGradient id="paint3_radial_8_3" cx="0" cy="0" r="1" gradientUnits="userSpaceOnUse" gradientTransform="translate(60.2638 98.4141) rotate(89.0167) scale(7.46276 26.671)">
<stop stop-color="#FF9F05"/>
<stop offset="1" stop-color="#FF9F05"/>
</radialGradient>
<radialGradient id="paint4_radial_8_3" cx="0" cy="0" r="1" gradientUnits="userSpaceOnUse" gradientTransform="translate(59.6055 94.9148) rotate(88.8653) scale(20.0901 65.0153)">
<stop stop-color="#FF9F05"/>
<stop offset="1" stop-color="#FFAE05"/>
</radialGradient>
<radialGradient id="paint5_radial_8_3" cx="0" cy="0" r="1" gradientUnits="userSpaceOnUse" gradientTransform="translate(45.038 60.7157) rotate(-12.2775) scale(28.1716 46.525)">
<stop stop-color="#595959"/>
<stop offset="0.65" stop-color="#1B1B1B"/>
<stop offset="1"/>
</radialGradient>
</defs>
</svg>

<svg xmlns="http://www.w3.org/2000/svg" width="96" height="120" fill="none" viewBox="0 0 96 120"><g filter="url(#a)"><path fill="#fff" d="M16.876 17.81c-5.007 2.421-7.426 8.541-5.644 14.337l21.855 67.516 26.252-5.898 26.252-5.897-9.723-70.25c-.923-5.978-5.775-10.48-11.35-10.531-16.554-.137-32.791 3.507-47.643 10.703z"/></g><path fill="#ff9f05" d="M50.572 7.935 29.83 12.582l-1.09-4.735c-.364-1.571.513-3.164 2.06-3.716A66.3 66.3 0 0 1 46.032.715a3.213 3.213 0 0 1 3.47 2.464l1.09 4.735z"/><path fill="url(#b)" d="M61.859 16.112 23.203 24.79l-2.023-8.8c-.68-2.933.972-5.905 3.815-6.9a124 124 0 0 1 28.368-6.377c3.024-.304 5.792 1.668 6.452 4.6l2.023 8.8z"/><path fill="url(#c)" d="M15.876 16.752c-5.152 2.486-7.651 8.818-5.824 14.78l22.52 69.588 27.07-6.08 27.07-6.08-10.014-72.39c-.968-6.167-5.948-10.792-11.69-10.84-17.06-.15-33.8 3.608-49.11 11.022z"/><path fill="#fff" d="M62.586 87.252c-1.04-1.707-2.411-3.197-3.74-4.689-.837-.953-1.674-1.927-2.386-2.967-.323-.457-1.14-.275-1.194.294-.13 1.012-.365 2.005-.622 2.977-.476 1.67-1.057 3.32-1.45 5.01-.352 1.52-.514 3.1-.298 4.631l10.936-2.459a11.6 11.6 0 0 0-1.267-2.797z" opacity=".3"/><path fill="url(#d)" d="M86.684 88.984c.75 3.268-10.768 8.618-25.706 11.967-14.939 3.348-27.683 3.44-28.412.172-.75-3.268 10.768-8.619 25.707-11.967 14.959-3.349 27.682-3.44 28.411-.172"/><path stroke="#ff9f05" stroke-miterlimit="10" stroke-width="1.27" d="M86.684 88.984c.75 3.268-10.768 8.618-25.706 11.967-14.939 3.348-27.683 3.44-28.412.172-.75-3.268 10.768-8.619 25.707-11.967 14.959-3.349 27.682-3.44 28.411-.172Z"/><path stroke="#ff9f05" stroke-miterlimit="10" stroke-width="1.27" d="M86.18 91.705c.726 3.121-10.332 8.275-24.705 11.508s-26.57 3.295-27.297.174c-.726-3.121 10.332-8.275 24.705-11.508 14.352-3.212 26.57-3.296 27.297-.174Z"/><path fill="url(#e)" d="M86.262 90.693a.6.6 0 0 0-.403-.182.57.57 0 0 0-.397.175c-2.911 3.142-13.001 7.143-24.566 9.739-11.566 2.596-22.427 3.287-26.409 1.694a.538.538 0 0 0-.73.349c-.1.338-.115.675-.046.989.931 4.023 15.092 3.128 27.956.257 12.864-2.892 26.046-8.124 25.114-12.146a2.1 2.1 0 0 0-.478-.896z"/><path fill="#fff" d="M52.905 92.507c.024.167.049.356.093.524.366 1.697 1.32 3.342 2.83 4.326a5.2 5.2 0 0 0 2.538.819c3.2.176 5.617-2.347 5.819-5.316.067-.948-.075-1.892-.343-2.812z"/><path fill="url(#f)" d="M58.15 88.631c-13.387 3.006-27.09 8.458-26.136 12.627a.44.44 0 0 0 .088.208l1.636 2.223c.13.187.362.267.572.221.042 0 .063-.001.104-.043.23-.11.373-.364.305-.616a1.2 1.2 0 0 1 .035-.463c.754-2.6 10.014-7.197 24.26-10.386 14.227-3.188 24.599-3.009 26.421-.979.108.124.194.25.217.396a.56.56 0 0 0 .555.432.58.58 0 0 0 .539-.45l.5-2.722-.004-.232c-.955-4.169-15.704-3.243-29.07-.237z"/><path fill="#f4f4f4" d="M22.843 13.754c-3.788 2.315-7.213 6.16-7.26 10.788.047 2.712 1.017 5.345 1.672 7.963 4.99 17.434 10.802 35.044 16.21 52.386l3.251 10.482c-2.141-5.895-5.11-14.698-7.15-20.762-3.46-10.415-6.836-20.873-9.94-31.4-1.542-5.273-3.125-10.546-4.227-15.932-1.443-5.654 2.608-11.024 7.423-13.567zM57.8 5.92c4.505.28 9.418 2.215 11.635 6.405 1.22 2.503 1.563 5.294 2.198 7.975 2.77 14.38 4.723 28.902 6.655 43.402.803 6.338 1.949 15.51 2.603 21.787l-1.616-10.846c-2.686-17.979-5.104-36.34-8.208-54.228-.55-2.64-.85-5.432-1.986-7.895-2.09-4.128-6.815-6.13-11.24-6.6zm-3.893 65.77A1066 1066 0 0 1 40.81 14.497 1070 1070 0 0 1 53.907 71.69M32.085 11.305c-4.652 5.906-1.237 13.713.24 20.187 4.1 15.745 9.418 35.214 13.538 51.023l2.615 10.24c-1.025-3.369-1.987-6.76-2.992-10.129-4.831-16.827-9.585-34.012-13.81-50.976-1.373-6.538-4.646-14.6.388-20.345zm16.318-3.669c7.014 2.993 7.604 11.669 9.209 18.161 3.595 17.1 6.799 34.65 9.766 51.908.565 3.482 1.171 6.942 1.715 10.424L67 77.775c-3.178-16.056-6.883-35.868-10.039-51.84-1.478-6.474-1.834-14.965-8.558-18.278z" opacity=".1"/><path fill="url(#g)" d="M61.042 100.693c15.144-3.654 22.545-26.825 16.53-51.755-6.014-24.93-23.166-42.178-38.31-38.524-15.143 3.653-22.543 26.824-16.53 51.754 6.015 24.93 23.167 42.178 38.31 38.525" style="mix-blend-mode:color-dodge"/><defs><radialGradient id="e" cx="0" cy="0" r="1" gradientTransform="rotate(89.017 -19.927 79.86)scale(7.46276 26.671)" gradientUnits="userSpaceOnUse"><stop stop-color="#ff9f05"/><stop offset="1" stop-color="#ff9f05"/></radialGradient><radialGradient id="f" cx="0" cy="0" r="1" gradientTransform="rotate(88.865 -18.604 77.856)scale(20.0901 65.0153)" gradientUnits="userSpaceOnUse"><stop stop-color="#ff9f05"/><stop offset="1" stop-color="#ffae05"/></radialGradient><radialGradient id="g" cx="0" cy="0" r="1" gradientTransform="rotate(-12.277 304.778 -179.017)scale(28.1716 46.525)" gradientUnits="userSpaceOnUse"><stop stop-color="#595959"/><stop offset=".65" stop-color="#1b1b1b"/><stop offset="1"/></radialGradient><linearGradient id="b" x1="41.228" x2="41.599" y1="2.9" y2="24.473" gradientUnits="userSpaceOnUse"><stop stop-color="#ff9f05"/><stop offset="1" stop-color="#fecb30" stop-opacity=".8"/></linearGradient><linearGradient id="c" x1="47.186" x2="48.813" y1="5.998" y2="100.841" gradientUnits="userSpaceOnUse"><stop stop-color="#ff8a00"/><stop offset="1" stop-color="#ff9f05" stop-opacity=".82"/></linearGradient><linearGradient id="d" x1="57.004" x2="60.004" y1="76.501" y2="109.001" gradientUnits="userSpaceOnUse"><stop stop-color="#ff8a00"/><stop offset="1" stop-color="#ff9f05" stop-opacity=".82"/></linearGradient><filter id="a" width="94.942" height="112.58" x=".649" y="7.083" color-interpolation-filters="sRGB" filterUnits="userSpaceOnUse"><feFlood flood-opacity="0" result="BackgroundImageFix"/><feColorMatrix in="SourceAlpha" result="hardAlpha" values="0 0 0 0 0 0 0 0 0 0 0 0 0 0 0 0 0 0 127 0"/><feOffset dy="10"/><feGaussianBlur stdDeviation="5"/><feColorMatrix values="0 0 0 0 0 0 0 0 0 0 0 0 0 0 0 0 0 0 0.65 0"/><feBlend in2="BackgroundImageFix" result="effect1_dropShadow_8_3"/><feBlend in="SourceGraphic" in2="effect1_dropShadow_8_3" result="shape"/></filter></defs></svg>
